X:1
T:Title
%%score { ( 1 4 ) | ( 2 3 ) }
L:1/8
Q:1/4=100
M:4/4
K:G
V:1 treble nm="Grand Piano"
V:4 treble 
V:2 treble 
V:3 treble 
V:1
 D>G G>A B>B c>B | [EA]2 [EG]2 E4 | D>G G>A B>[DBd] [DBd]>[DGB] | [DAc]2 [DGB]2 [DFA]4 | %4
w: William~J.~Kirkpatrick * * * * * * *||||
 [DGB]>[^CG_B] [DG=B]>[DAc] [DBd]>[DGB] [DAc]>[=CFA] | [B,EG]2 [EA]2 [^DB]4 | %6
w: ||
 [G,E]>[G,^DF] [G,EG]>[CDA] [B,D]<[=DGB] [CFA]>[CFA] | [B,DG]6 z2 | d>^c d>e d2 G2 | %9
w: |||
 F>=F ^F>c [FB]2 [FA]2 | [EG]>[FA] [GB]>[Gd] ^c>A B>c | d6 z2 | B>_B =B>[Ac] [Bd]>[GB] [Ac]>[FA] | %13
w: ||||
 [EG]2 [EA]2 [^DB]4 | [G,E]>[G,^DF] [G,EG]>[CDA] [B,D]<[=DGB] [CFA]>[CFA] |[M:8/4] [B,DG]8 z8 |] %16
w: |||
V:2
 [G,B,]>[G,B,D] [G,B,D]>[G,CD] [G,DG]>[G,DG] [G,EG]>[G,DG] | [C,C]2 [C,C]2 [C,G,C]4 | %2
 [G,B,]>[G,B,D][K:treble] [G,B,D]>[G,CD] [G,DG]>G, G,>[K:bass]G, | F,2 G,2 D,4 | %4
 G,>G, G,>G, G,>G, D,>D, | z4 F,2 z2 | C,>C, C,>C, C,<D, D,>D, | G,,6 z2 | %8
 [G,B,G]>[G,_B,G] [G,=B,G]>[_B,CG] [G,=B,G]2 [B,D]2 | %9
 [A,CD]>[^G,CD] [A,CD]>[A,DF][K:bass] [D,D]2 [D,C]2 | %10
 [E,B,]>[E,B,] [E,B,]>[E,B,][K:treble] [A,G]>[A,CG] [A,DG]>[A,EG] | %11
 [D,D]2 [CD]2[K:treble] [B,D]2 [A,DF]2 | %12
 [G,DG]>[G,^CG] [G,DG]>[K:bass][G,D] [G,D]>[G,D] [D,D]>[D,=C] | z4 F,2 z2 | %14
 C,>C, C,>C, C,<D, D,>D, |[M:8/4] G,,8 z8 |] %16
V:3
 x8 | x8 | x2[K:treble] x11/2[K:bass] x/ | x8 | x8 | E,2 [C,E,]2 B,,2- [B,,A,]2 | x8 | x8 | x8 | %9
 x4[K:bass] x4 | x4[K:treble] x4 | x4[K:treble] x4 | x7/2[K:bass] x9/2 | %13
 [E,B,]2 [C,E,]2 B,,2- [B,,A,]2 | x8 |[M:8/4] x16 |] %16
V:4
 x8 | x8 | x8 | x8 | x8 | x8 | x8 | x8 | x8 | x8 | x8 | F2 F2 G2 c2 | x8 | x8 | x8 |[M:8/4] x16 |] %16

